src/images/icons/inst.svg

<svg width="25" height="24" viewBox="0 0 25 24" fill="none" xmlns="http://www.w3.org/2000/svg">
<g opacity="0.5">
<path d="M12.6033 6.06885C9.64033 6.06885 7.1853 8.48155 7.1853 11.4868C7.1853 14.4921 9.598 16.9048 12.6033 16.9048C15.6086 16.9048 18.0213 14.4498 18.0213 11.4868C18.0213 8.52387 15.5663 6.06885 12.6033 6.06885ZM12.6033 14.9577C10.6985 14.9577 9.13239 13.3916 9.13239 11.4868C9.13239 9.58207 10.6985 8.01594 12.6033 8.01594C14.5081 8.01594 16.0742 9.58207 16.0742 11.4868C16.0742 13.3916 14.5081 14.9577 12.6033 14.9577Z" fill="white"/>
<path d="M18.233 7.16938C18.9109 7.16938 19.4605 6.61981 19.4605 5.94187C19.4605 5.26393 18.9109 4.71436 18.233 4.71436C17.5551 4.71436 17.0055 5.26393 17.0055 5.94187C17.0055 6.61981 17.5551 7.16938 18.233 7.16938Z" fill="white"/>
<path d="M21.4075 2.76719C20.307 1.62433 18.7409 1.03174 16.9631 1.03174H8.24352C4.56098 1.03174 2.10596 3.48676 2.10596 7.1693V15.8466C2.10596 17.6667 2.69855 19.2328 3.88373 20.3757C5.02659 21.4762 6.5504 22.0264 8.28585 22.0264H16.9208C18.7409 22.0264 20.2647 21.4339 21.3652 20.3757C22.5081 19.2751 23.1007 17.709 23.1007 15.8889V7.1693C23.1007 5.39153 22.5081 3.86772 21.4075 2.76719ZM21.2382 15.8889C21.2382 17.2011 20.7726 18.2593 20.0107 18.9788C19.2488 19.6984 18.1906 20.0794 16.9208 20.0794H8.28585C7.01601 20.0794 5.95781 19.6984 5.1959 18.9788C4.434 18.2169 4.05305 17.1587 4.05305 15.8466V7.1693C4.05305 5.89946 4.434 4.84126 5.1959 4.07936C5.91548 3.35978 7.01601 2.97883 8.28585 2.97883H17.0054C18.2753 2.97883 19.3335 3.35978 20.0954 4.12169C20.815 4.88359 21.2382 5.94179 21.2382 7.1693V15.8889Z" fill="white"/>
</g>
</svg>

<svg width="25" height="24" fill="none" xmlns="http://www.w3.org/2000/svg"><g opacity=".5" fill="#fff"><path d="M12.603 6.069c-2.963 0-5.418 2.413-5.418 5.418a5.401 5.401 0 0 0 5.418 5.418c3.006 0 5.418-2.455 5.418-5.418s-2.455-5.418-5.418-5.418Zm0 8.889a3.487 3.487 0 0 1-3.47-3.471 3.487 3.487 0 0 1 3.47-3.471 3.487 3.487 0 0 1 3.471 3.47 3.487 3.487 0 0 1-3.47 3.472Zm5.63-7.788a1.228 1.228 0 1 0 0-2.456 1.228 1.228 0 0 0 0 2.455Z"/><path d="M21.407 2.767c-1.1-1.143-2.666-1.735-4.444-1.735h-8.72c-3.682 0-6.137 2.455-6.137 6.137v8.678c0 1.82.593 3.386 1.778 4.529 1.143 1.1 2.666 1.65 4.402 1.65h8.635c1.82 0 3.344-.592 4.444-1.65 1.143-1.1 1.736-2.667 1.736-4.487v-8.72c0-1.777-.593-3.301-1.694-4.402Zm-.169 13.122c0 1.312-.465 2.37-1.227 3.09-.762.72-1.82 1.1-3.09 1.1H8.286c-1.27 0-2.328-.38-3.09-1.1-.762-.762-1.143-1.82-1.143-3.132V7.169c0-1.27.381-2.328 1.143-3.09.72-.72 1.82-1.1 3.09-1.1h8.72c1.27 0 2.328.38 3.09 1.143.719.762 1.142 1.82 1.142 3.047v8.72Z"/></g></svg>
